X:25
T:Fanny Power
S:The Session: https://thesession.org/tunes/957#setting957
C:Traditional
R:waltz
K:G
M:3/4
L:1/8
Q:1/4=96
D|: "G"G2D "Em"G>AB| "C"c2B "D"A2G| "C"F>GE "D"D>ED| "Bm"F2G "D"A>Bc| 
| "G"B>AG "Em"B>cd| "C"e2A "D"A2G| "C"F>GE "D"D>GF|1 "G" G3 G2 D:|2 "G" G3 G2 d|] 
|: "G"dB/c/d dB/c/d| "Em"G>AG GBd| "C"ec/d/e ec/d/e| "D"A>BA ABc|
| "G"B>cd "C"e>fg| "D"f>ga d2c| "G"B>AG "D"A/B/cF|1 "G"G3 G2 d:|2 "G" G3 G3|]

